packages/foundations/assets/icons/functional/images/environment/cloud_16.svg

<svg width="16" height="16" viewBox="0 0 16 16" fill="none" xmlns="http://www.w3.org/2000/svg">
<g clip-path="url(#clip0_185_793)">
<path fill-rule="evenodd" clip-rule="evenodd" d="M6.54593 4.61763L6.39998 4.8L6.23706 4.8041C5.04877 4.86411 4.00863 5.57695 3.5098 6.62423L3.48318 6.6832L3.42405 6.71008C2.32936 7.23121 1.59998 8.34446 1.59998 9.6C1.59998 11.3673 3.03266 12.8 4.79998 12.8L11.3641 12.7956C13.0749 12.6968 14.4 11.2974 14.4 9.6L14.3944 9.41032C14.3537 8.71858 14.0916 8.07044 13.6582 7.55125L13.5896 7.4744C13.5965 7.34463 13.6 7.25316 13.6 7.2C13.6 4.99086 11.8091 3.2 9.59998 3.2C8.47306 3.25306 7.25255 3.78063 6.54593 4.61763ZM9.59998 4.8C10.9255 4.8 12 5.87451 12 7.2C12 7.34457 11.9873 7.48713 11.9623 7.62674L11.881 8.08067L12.2331 8.3785C12.5907 8.68101 12.8 9.12254 12.8 9.6C12.8 10.4485 12.1372 11.1484 11.2947 11.1973L4.79998 11.2C3.91632 11.2 3.19998 10.4837 3.19998 9.6C3.19998 8.89034 3.66633 8.27118 4.3346 8.06851L4.7437 7.94444L4.86791 7.53537C5.07102 6.86643 5.69026 6.4 6.39998 6.4C6.49295 6.4 6.58456 6.40784 6.67431 6.42329L7.23155 6.51923L7.50795 6.02594C7.929 5.27449 8.72223 4.8 9.59998 4.8Z" fill="#1A1C1F"/>
</g>
<defs>
<clipPath id="clip0_185_793">
<rect width="16" height="16" fill="white"/>
</clipPath>
</defs>
</svg>

<svg xmlns="http://www.w3.org/2000/svg" width="16" height="16" fill="none"><g clip-path="url(#a)"><path fill="#1A1C1F" fill-rule="evenodd" d="M6.546 4.618 6.4 4.8l-.163.004a3.2 3.2 0 0 0-2.727 1.82l-.027.06-.059.026A3.201 3.201 0 0 0 4.8 12.8l6.564-.004A3.205 3.205 0 0 0 14.4 9.6l-.006-.19a3.2 3.2 0 0 0-.736-1.859l-.068-.077q.01-.194.01-.274a4 4 0 0 0-4-4c-1.127.053-2.347.58-3.054 1.418M9.6 4.8a2.4 2.4 0 0 1 2.362 2.827l-.081.454.352.298a1.6 1.6 0 0 1-.938 2.819L4.8 11.2a1.6 1.6 0 0 1-.465-3.131l.409-.125.124-.409a1.6 1.6 0 0 1 1.806-1.112l.558.096.276-.493A2.4 2.4 0 0 1 9.6 4.8" clip-rule="evenodd"/></g><defs><clipPath id="a"><path fill="#fff" d="M0 0h16v16H0z"/></clipPath></defs></svg>
